svgs/duotone/camera-web.svg

<svg xmlns="http://www.w3.org/2000/svg" viewBox="0 0 448 512"><!-- Font Awesome Pro 6.0.0-alpha2 by @fontawesome - https://fontawesome.com License - https://fontawesome.com/license (Commercial License) --><defs><style>.fa-secondary{opacity:.4}</style></defs><path d="M224.125 96H224C153.375 96 96 153.25 96 224S153.375 352 224 352C294.75 352 352 294.75 352 224C352 153.375 294.75 96 224.125 96ZM224 176C197.5 176 176.125 197.5 176 224C176 232.875 168.875 240 160 240C151.25 240 144 232.875 144 224C144.125 179.875 179.875 144 224 144C232.875 144 240 151.125 240 160S232.875 176 224 176Z" class="fa-secondary"/><path d="M400.875 438.626L351.75 407.876C409.875 367.376 448 300.251 448 224.001C448 100.251 347.625 0.001 224 0.001C100.25 0.001 0 100.251 0 224.001C0 300.251 38.125 367.376 96.125 407.876L47 438.626C37.625 444.501 32 454.751 32 465.751V480.001C32 497.626 46.375 512.001 64 512.001H384C401.625 512.001 416 497.626 416 480.001V465.751C416 454.751 410.25 444.501 400.875 438.626ZM223.875 384.001C135.5 384.001 63.875 312.376 63.875 224.001S135.5 64.001 223.875 64.001S383.875 135.626 383.875 224.001S312.25 384.001 224 384.001H223.875Z" class="fa-primary"/></svg>

<svg xmlns="http://www.w3.org/2000/svg" viewBox="0 0 448 512"><!--! Font Awesome Pro 6.3.0 by @fontawesome - https://fontawesome.com License - https://fontawesome.com/license (Commercial License) Copyright 2023 Fonticons, Inc. --><defs><style>.fa-secondary{opacity:.4}</style></defs><path class="fa-primary" d="M400.9 438.6l-49.12-30.75C409.9 367.4 448 300.3 448 224c0-123.8-100.4-224-224-224c-123.8 0-224 100.3-224 224c0 76.25 38.13 143.4 96.13 183.9L47 438.6C37.63 444.5 32 454.8 32 465.8v14.25c0 17.62 14.48 31.1 32.11 31.1L384 512c17.62 0 32-14.38 32-32V465.8C416 454.8 410.3 444.5 400.9 438.6zM224 384c-88.37 0-160.1-71.62-160.1-159.1s71.63-160 159.1-160s160 71.62 160 160S312.3 384 224 384z"/><path class="fa-secondary" d="M224 96C153.4 96 95.92 153.3 95.92 224s57.38 128 128 128c70.75 0 128-57.25 128-128C351.9 153.4 294.6 96 224 96zM223.9 176c-26.5 0-47.88 21.5-48 48c0 8.875-7.125 16-16 16c-8.75 0-16-7.125-16-16c.125-44.13 35.92-80 80.04-80c8.875 0 15.96 7.125 15.96 16S232.8 176 223.9 176z"/></svg>
